X: 161333
T: Paddy McFadden's
T: Cis N\'i Liath\'ain
S: "Ceol Rince na hEireann" 1/58
Z: B.Black
L: 1/8
M: 6/8
R: jig
K: Ador
g/f/|: e2A ABA|e2f g2f|e2A ABA|G2A Bcd|
e2A ABA|e2f g2f|efe e2d|B2A A3 :|
e2a a2g|e2f g2f|e2a a2g|e2d Bcd|
e2a a2g|e2f g2f|efe e2d|B2A A3 :|
